icons/solidjs-dark.svg

<svg width="256" height="256" viewBox="0 0 256 256" fill="none" xmlns="http://www.w3.org/2000/svg">
<rect width="256" height="256" rx="60" fill="#282828"/>
<path d="M224 76.8547C224 76.8547 160 29.7603 110.491 40.6283L106.868 41.8358C99.6226 44.2509 93.5849 47.8735 89.9623 52.7037L87.5472 56.3264L69.434 87.7226L100.83 93.7603C114.113 102.213 131.019 105.836 146.717 102.213L202.264 113.081L224 76.8547Z" fill="#76B3E1"/>
<path opacity="0.3" d="M224 76.8547C224 76.8547 160 29.7603 110.491 40.6283L106.868 41.8358C99.6226 44.2509 93.5849 47.8735 89.9623 52.7037L87.5472 56.3264L69.434 87.7226L100.83 93.7603C114.113 102.213 131.019 105.836 146.717 102.213L202.264 113.081L224 76.8547Z" fill="url(#paint0_linear_702_321)"/>
<path d="M89.9623 76.8543L85.1321 78.0619C64.6038 84.0996 58.566 103.42 69.434 120.326C81.5094 136.024 106.868 144.477 127.396 138.439L202.264 113.081C202.264 113.081 138.264 65.9864 89.9623 76.8543Z" fill="#518AC8"/>
<path opacity="0.3" d="M89.9623 76.8543L85.1321 78.0619C64.6038 84.0996 58.566 103.42 69.434 120.326C81.5094 136.024 106.868 144.477 127.396 138.439L202.264 113.081C202.264 113.081 138.264 65.9864 89.9623 76.8543Z" fill="url(#paint1_linear_702_321)"/>
<path d="M188.981 131.194C182.22 122.748 173.093 116.512 162.766 113.285C152.44 110.058 141.386 109.987 131.019 113.081L56.1509 137.232L32 179.496L167.245 202.439L191.396 158.968C196.226 150.515 195.019 140.854 188.981 131.194Z" fill="url(#paint2_linear_702_321)"/>
<path d="M164.83 173.458C158.07 165.012 148.942 158.776 138.615 155.549C128.289 152.322 117.235 152.251 106.868 155.345L32 179.496C32 179.496 96 227.798 145.509 215.722L149.132 214.515C169.66 208.477 176.906 189.156 164.83 173.458Z" fill="url(#paint3_linear_702_321)"/>
<defs>
<linearGradient id="paint0_linear_702_321" x1="60.3774" y1="38.2132" x2="210.717" y2="111.27" gradientUnits="userSpaceOnUse">
<stop offset="0.1" stop-color="#76B3E1"/>
<stop offset="0.3" stop-color="#DCF2FD"/>
<stop offset="1" stop-color="#76B3E1"/>
</linearGradient>
<linearGradient id="paint1_linear_702_321" x1="142.853" y1="73.9562" x2="116.528" y2="161.624" gradientUnits="userSpaceOnUse">
<stop stop-color="#76B3E1"/>
<stop offset="0.5" stop-color="#4377BB"/>
<stop offset="1" stop-color="#1F3B77"/>
</linearGradient>
<linearGradient id="paint2_linear_702_321" x1="49.3887" y1="112.115" x2="201.419" y2="215.481" gradientUnits="userSpaceOnUse">
<stop stop-color="#315AA9"/>
<stop offset="0.5" stop-color="#518AC8"/>
<stop offset="1" stop-color="#315AA9"/>
</linearGradient>
<linearGradient id="paint3_linear_702_321" x1="117.977" y1="124.552" x2="56.6339" y2="349.519" gradientUnits="userSpaceOnUse">
<stop stop-color="#4377BB"/>
<stop offset="0.5" stop-color="#1A336B"/>
<stop offset="1" stop-color="#1A336B"/>
</linearGradient>
</defs>
</svg>

<svg xmlns="http://www.w3.org/2000/svg" width="256" height="256" fill="none"><rect width="256" height="256" fill="#282828" rx="60"/><path fill="#76B3E1" d="M224 76.855S160 29.76 110.491 40.628l-3.623 1.208c-7.245 2.415-13.283 6.038-16.906 10.868l-2.415 3.622-18.113 31.397 31.396 6.037c13.283 8.453 30.189 12.076 45.887 8.453l55.547 10.868z"/><path fill="url(#paint0_linear_702_321)" d="M224 76.855S160 29.76 110.491 40.628l-3.623 1.208c-7.245 2.415-13.283 6.038-16.906 10.868l-2.415 3.622-18.113 31.397 31.396 6.037c13.283 8.453 30.189 12.076 45.887 8.453l55.547 10.868z" opacity=".3"/><path fill="#518AC8" d="m89.962 76.854-4.83 1.208C64.604 84.1 58.566 103.42 69.434 120.326c12.075 15.698 37.434 24.151 57.962 18.113l74.868-25.358s-64-47.095-112.302-36.227"/><path fill="url(#paint1_linear_702_321)" d="m89.962 76.854-4.83 1.208C64.604 84.1 58.566 103.42 69.434 120.326c12.075 15.698 37.434 24.151 57.962 18.113l74.868-25.358s-64-47.095-112.302-36.227" opacity=".3"/><path fill="url(#paint2_linear_702_321)" d="M188.981 131.194a54.34 54.34 0 0 0-57.962-18.113l-74.868 24.151L32 179.496l135.245 22.943 24.151-43.471c4.83-8.453 3.623-18.114-2.415-27.774"/><path fill="url(#paint3_linear_702_321)" d="M164.83 173.458a54.335 54.335 0 0 0-57.962-18.113L32 179.496s64 48.302 113.509 36.226l3.623-1.207c20.528-6.038 27.774-25.359 15.698-41.057"/><defs><linearGradient id="paint0_linear_702_321" x1="60.377" x2="210.717" y1="38.213" y2="111.27" gradientUnits="userSpaceOnUse"><stop offset=".1" stop-color="#76B3E1"/><stop offset=".3" stop-color="#DCF2FD"/><stop offset="1" stop-color="#76B3E1"/></linearGradient><linearGradient id="paint1_linear_702_321" x1="142.853" x2="116.528" y1="73.956" y2="161.624" gradientUnits="userSpaceOnUse"><stop stop-color="#76B3E1"/><stop offset=".5" stop-color="#4377BB"/><stop offset="1" stop-color="#1F3B77"/></linearGradient><linearGradient id="paint2_linear_702_321" x1="49.389" x2="201.419" y1="112.115" y2="215.481" gradientUnits="userSpaceOnUse"><stop stop-color="#315AA9"/><stop offset=".5" stop-color="#518AC8"/><stop offset="1" stop-color="#315AA9"/></linearGradient><linearGradient id="paint3_linear_702_321" x1="117.977" x2="56.634" y1="124.552" y2="349.519" gradientUnits="userSpaceOnUse"><stop stop-color="#4377BB"/><stop offset=".5" stop-color="#1A336B"/><stop offset="1" stop-color="#1A336B"/></linearGradient></defs></svg>
